X:1
T:Rainy Afternoon
M:4/4
L:1/8
K:Dm
A2| F2 A2 B2 A2| G2 F2 E2 D2|C2 A2 B2 A2|A2 G2 F2 D2|A2 F2 E2 D2|C2 A2 B2 G2|F2 D2 F2 E2 | D4 D2||